X:1
T:Title
%%score { ( 1 3 ) | ( 2 4 5 ) }
L:1/8
M:4/4
K:Bb
V:1 treble nm="Grand Piano"
V:3 treble 
V:2 bass 
V:4 bass 
V:5 bass 
V:1
 z4 z2[Q:1/4=100] F2 | B3- B/c/ B>F D>E | F>G F4 [DB]2 | [Fd]>[Fd] [Fd]>[Fd] [Ge]2 [^FB]2 | %4
 [Fd]6 z2 | c3- c/d/ c>B [=EA]>[EG] | A>B c4 F2 | G>A c>B A2 [B,=EG]2 |[M:3/4] [A,F]6 |[M:1/4] z2 | %10
[M:4/4] E2- [E-G]>[E-G] [E-c]2 [EG]2 | [DF]>G [DF]4 [DFB]2 | %12
 [EAc]3- [EAc]/[Ac]/ [EAc]>[EFA] [GB]>[GBc] | [^FAd]6 d2 | [F=Bd]>[Bd] [FBd]>[Bd] [FBe]2 [FBd]2 | %15
 G2 c4 z2 | A>A A>A B2 G2 |[M:11/8] c-c-c-c-c-c- c3 z2 |[M:4/4] [Dd]2 [Dc]>[DB] [DF]3 [DF] | %19
 [_D=E]2 [=DF]2 [_DG]2 [=DF]2 | d2 d>c B3 d | c2 z2 c4 | [FB]2 [F=B]>[FB] [Gc]>[Gc] [Gd]>[Gd] | %23
 f2 e2 [Gd]2 [Gc]2 |[M:35/32] B2 B2 Bdc-(3:2:4c3/2-c/4[DB]3/4-[DB]/8 |[M:3/4] [DB]6 |] %26
V:2
 z4 z2 F,2 | B,3- B,/C/ B,>F, D,>E, | F,>G, F,4 [B,,F,]2 | %3
 [B,,B,]>[B,,B,] [B,,B,]>[B,,B,] [B,,B,]2 [B,,B,]2 | [B,,B,]2 B,,2 .B,,2[K:treble] [B,F]2 | %5
 [A,CF]3- [A,CF]/[A,CF]/ [G,C=E]>[K:bass][G,CE] [C,C]>[C,C] | [CF]2[K:treble] z2 z4 | %7
 [B,DF]>[B,DF] [G,DF]>[G,DF] [CF]2[K:bass] C,2 |[M:3/4] F,6 |[M:1/4] F2 | %10
[M:4/4] z z/ G/ F,2 F,2 F,2 | z z/ E/ F,2 F,2 F,2 | z2 z z/ E/ F,2 [F,E]>[E,,E,] | %13
 [D,,D,]2 ^F,,A,, .D,2 D2 | z z/[K:treble] F/ z z/ F/ G,2 G,2 | z2 [=EG]4 [C,C]2 | %16
 [F,CF]>[F,CF] [F,CF]>[F,CF] [F,G,=E]2 [F,B,E]2 | %17
[M:11/8] [F,A,E]-[F,A,E]-[F,A,E]-[F,A,E]-[F,A,E]-[F,A,E]- [F,A,E]3 z2 | %18
[M:4/4] [B,,F,]2 [B,,F,]>[B,,F,] [B,,F,]3 [B,,F,] | [B,,G,]2 [B,,F,]2 [B,,=E,]2 [B,,F,]2 | %20
 [B,DF]2 [A,D^F]>[A,DF] [G,DG]3 [G,B,G] | .[C,G,]2 [C,B,]2 [A,F]4 | %22
 [D,B,]2 [D,_A,]>[D,A,] [E,G,]>[E,G,] [D,=B,]>[D,B,] | [C,C]4 [D,=B,]2 [E,C]2 | %24
[M:35/32] [F,DF]2 [^F,_D=E]2 [=F,=DF][F,B,F][F,A,_E]-(3:2:4[F,A,E]3/2-[F,A,E]/4[B,,B,]3/4-[B,,B,]/8 | %25
[M:3/4] [B,,B,]6 |] %26
V:3
 x8 | x8 | x8 | x8 | z2 B,2 .B,2 d2 | x8 | x8 | x8 |[M:3/4] x6 |[M:1/4] x2 |[M:4/4] G2 z2 z4 | x8 | %12
 x8 | x8 | x8 | =E->[Ed] z2 .C2 [EB]2 | x8 |[M:11/8] x11 |[M:4/4] x8 | x8 | x8 | %21
 =E[A,F] [Gc]2 z2 E,2 | x8 | G4 z4 |[M:35/32] x35/4 |[M:3/4] x6 |] %26
V:4
 x8 | x8 | x8 | x8 | x6[K:treble] x2 | x11/2[K:bass] x5/2 | F,>G,[K:treble] [A,CF]4 [A,C]2 | %7
 x6[K:bass] x2 |[M:3/4] x6 |[M:1/4] x2 |[M:4/4] F,,8 | F,,8 | z2 F,2 z4 | x8 | %14
 z2[K:treble] G,2 z4 | C,6 z2 | x8 |[M:11/8] x11 |[M:4/4] x8 | x8 | x8 | z4 F,2 z2 | x8 | x8 | %24
[M:35/32] x35/4 |[M:3/4] x6 |] %26
V:5
 x8 | x8 | x8 | x8 | x6[K:treble] x2 | x11/2[K:bass] x5/2 | x2[K:treble] x6 | x6[K:bass] x2 | %8
[M:3/4] x6 |[M:1/4] x2 |[M:4/4] x8 | x8 | F,,8 | x8 | G,,8[K:treble] | x8 | x8 |[M:11/8] x11 | %18
[M:4/4] x8 | x8 | x8 | x8 | x8 | x8 |[M:35/32] x35/4 |[M:3/4] x6 |] %26

